svg/fluentui-system-icons/ic_fluent_broad_activity_feed_20_filled.svg

<svg width="20" height="20" viewBox="0 0 20 20" fill="none" xmlns="http://www.w3.org/2000/svg">
<path d="M3.5 3C2.67157 3 2 3.67157 2 4.5V8.5C2 9.32843 2.67157 10 3.5 10H16.5C17.3284 10 18 9.32843 18 8.5V4.5C18 3.67157 17.3284 3 16.5 3H3.5ZM3.5 12C2.67157 12 2 12.6716 2 13.5V15.5C2 16.3284 2.67157 17 3.5 17H7.5C8.32843 17 9 16.3284 9 15.5V13.5C9 12.6716 8.32843 12 7.5 12H3.5ZM12.5 12C11.6716 12 11 12.6716 11 13.5V15.5C11 16.3284 11.6716 17 12.5 17H16.5C17.3284 17 18 16.3284 18 15.5V13.5C18 12.6716 17.3284 12 16.5 12H12.5Z" fill="#212121"/>
</svg>

<svg xmlns="http://www.w3.org/2000/svg" width="20" height="20"><path d="M3.5 3A1.5 1.5 0 0 0 2 4.5v4A1.5 1.5 0 0 0 3.5 10h13A1.5 1.5 0 0 0 18 8.5v-4A1.5 1.5 0 0 0 16.5 3h-13Zm0 9A1.5 1.5 0 0 0 2 13.5v2A1.5 1.5 0 0 0 3.5 17h4A1.5 1.5 0 0 0 9 15.5v-2A1.5 1.5 0 0 0 7.5 12h-4Zm9 0a1.5 1.5 0 0 0-1.5 1.5v2a1.5 1.5 0 0 0 1.5 1.5h4a1.5 1.5 0 0 0 1.5-1.5v-2a1.5 1.5 0 0 0-1.5-1.5h-4Z"/></svg>
